X: 396
T: Bir Nevcivâne Dil Müptelâdır
C: III. Selim (İlhâmî)
O: Turkey
F: http://compmusic.upf.edu/node/140
N: sehnaz--sarki--aksak--bir_nevcivane--iii_selim
N: makam= sehnaz
N: form= sarki
N: usul= aksak = 9/8
M: 9/8
L: 1/16
K: C _7/8B ^1/4f ^c ^g
Q: 1/4=216
%%MIDI tuningsystem comma53
aga=b .a2.e2 =fed2 e2f2 g2 | a2 =b=c'd'2 c'bba aga4z2  | 
w:  ARANAĞME  |   | 
aga=b .a2.e2 f2ed {=g}f2e2 d2 | cd e=fed dccB BAA4a2  | 
w:   |   | 
aga=b .a2.e2 =fed2 e2f2 g2 | a2 =b=c'd'2 c'bba aga4z2  | 
w:  ARANAĞME  |   | 
aga=b .a2.e2 f2ed {=g}f2e2 d2 | cd e=fed dccB BAA6  | 
w:   |   | 
A4 A4 A4 a6 | a3=b=c'2 c'bba aga4a2  | \
w:  Bir  nev ci vâ  |  ne   | 
=b3a a3=g g2^3/4f2 f2e2 f2 | 
w:  dil  *  müp *  te *  lâ  | 
=g3=ba2 g2^3/4f2 fed6  | d4 e2f2 d4 =g6 | \
w:  dır    |  Hem  va *  re kâ  | 
=g2 =f2e2 d2c2 B2A4=G2  | 
w:  rı   | 
e3d d3c c3B dcB2 BA | A6 e=fed cBA4z2  | \
w:  cevr_ *  ü  *  ce *  fâ  |  dır   SAZ  | 
A4 A4 A4 a6 | 
w:  Bir  nev ci vâ  | 
a3=b=c'2 c'bba aga4a2  | =b3a a3=g g2^3/4f2 f2e2 f2 | \
w:  ne   |  dil  *  müp *  te *  lâ  | 
=g3=ba2 g2^3/4f2 fed6  | 
w:  dır    | 
d4 e2f2 d4 =g6 | =g2 =f2e2 d2c2 B2A4=G2  | \
w:  Hem  va *  re kâ  |  rı   | 
e3d d3c c3B dcB2 BA | 
w:  cevr_ *  ü  *  ce *  fâ  | 
A6 e=fed cde6  | d2e6 e4 e2{f}e2 d2 | \
w:  dır   SAZ  |  Gel   | 
=f3ed2 e2d2 e2d4=c2  | 
w:  gel   | 
e3d =c2d2 c2d2 c2_2/4B2 A2 | A=G A_2/4B=cd e=fed cde4z2  | 
w:  gel   |  gel   | 
d2e6 e4 e2{f}e2 d2 | =f3ed2 e2d2 e2d4=c2  | \
w:  ah   |  ah   | 
e3d =c2d2 c2d2 c2_2/4B2 A2 | 
w:  ah   | 
e3dd3cc3Bdc B2BA  | A6e=f edcB A6 | ag a=b.a2 .e2=fe d2e2 f2g2  | 
w:  bir  *  dil  *  rü *  bâ  |  dır   SAZ  |  ARANAĞME  | 
a2=b=c' d'2c'b baag a4 z2 | ag a=b.a2 .e2f2 ed{=g}f2 e2d2  | 
w:   |   | 
cde=f eddc cBBA A4 a2 | ag a=b.a2 .e2=fe d2e2 f2g2  | 
w:   |  ARANAĞME  | 
a2=b=c' d'2c'b baag a4 z2 | ag a=b.a2 .e2f2 ed{=g}f2 e2d2  | 
w:   |   | 
cde=f eddc cBBA A6 | A4A4A4a6  | a3=b =c'2c'b baag a4 a2 | 
w:   |  Bir  nev ci vâ  |  ne   | 
=b3aa3=gg2 ^3/4f2f2 e2f2  | =g3=b a2g2 ^3/4f2fe d6 | \
w:  dil  *  müp *  te *  lâ  |  dır    | 
d4e2 f2d4=g6  | 
w:  Hem  va *  re kâ  | 
=g2=f2 e2d2 c2B2 A4 =G2 | e3dd3cc3Bdc B2BA  | \
w:  rı   |  cevr_ *  ü  *  ce *  fâ  | 
A6e=f edcB A4 z2 | 
w:  dır   SAZ  | 
A4A4A4a6  | a3=b =c'2c'b baag a4 a2 | \
w:  Bir  nev ci vâ  |  ne   | 
=b3aa3=gg2 ^3/4f2f2 e2f2  | 
w:  dil  *  müp *  te *  lâ  | 
=g3=b a2g2 ^3/4f2fe d6 | d4e2 f2d4=g6  | \
w:  dır    |  Hem  va *  re kâ  | 
=g2=f2 e2d2 c2B2 A4 =G2 | 
w:  rı   | 
e3dd3cc3Bdc B2BA  | A6e=f edcd e6 | d2 e6e4e2 {f}e2d2  | 
w:  cevr_ *  ü  *  ce *  fâ  |  dır   SAZ  |  Gel   | 
=f3e d2e2 d2e2 d4 =c2 | e3d=c2 d2c2 d2c2 _2/4B2A2  | \
w:  gel   |  gel   | 
A=GA_2/4B =cde=f edcd e4 z2 | 
w:  gel   | 
d2 e6e4e2 {f}e2d2  | =f3e d2e2 d2e2 d4 =c2 | \
w:  ah   |  ah   | 
e3d=c2 d2c2 d2c2 _2/4B2A2  | 
w:  ah   | 
e3d d3c c3B dcB2 BA | A6 e=fed cBA6  | |


